src/assets/icons/headphones.svg

<svg width="14" height="14" viewBox="0 0 14 14" fill="none" xmlns="http://www.w3.org/2000/svg">
<g id="headphones">
<path id="Vector" fill-rule="evenodd" clip-rule="evenodd" d="M2.54783 7.49378C3.13954 7.59556 3.58974 8.11118 3.58974 8.73195V11.0109C3.58974 11.8456 2.79079 12.4483 1.98817 12.219L0.911248 11.9113C0.371869 11.7572 0 11.2642 0 10.7032V9.17567C0 8.69977 0.268875 8.26473 0.694526 8.0519L1.45075 7.67379C1.46235 7.50963 1.48305 7.29262 1.52006 7.03886C1.60305 6.46978 1.77002 5.70175 2.10925 4.92637C2.44859 4.15073 2.96889 3.34854 3.76822 2.73952C4.57463 2.12512 5.63332 1.73193 7 1.73193C8.36668 1.73193 9.42537 2.12512 10.2318 2.73952C11.0311 3.34854 11.5514 4.15073 11.8908 4.92637C12.23 5.70175 12.3969 6.46978 12.4799 7.03886C12.5169 7.29262 12.5377 7.50962 12.5493 7.67379L13.3055 8.05188C13.7311 8.26471 14 8.69976 14 9.17565V10.7032C14 11.2642 13.6281 11.7572 13.0888 11.9113L12.0118 12.219C11.2092 12.4483 10.4103 11.8456 10.4103 11.0109V8.73195C10.4103 8.11118 10.8605 7.59556 11.4522 7.49378C11.4425 7.40302 11.4301 7.30261 11.4143 7.19427C11.3402 6.68642 11.1931 6.01855 10.9041 5.35802C10.6153 4.69776 10.1933 4.06406 9.57912 3.59614C8.97206 3.13362 8.14614 2.80886 7 2.80886C5.85386 2.80886 5.02794 3.13362 4.42088 3.59614C3.80675 4.06406 3.38474 4.69776 3.09588 5.35802C2.8069 6.01855 2.65977 6.68642 2.58571 7.19427C2.56991 7.30261 2.55753 7.40302 2.54783 7.49378ZM11.8985 8.55246H11.6667C11.5675 8.55246 11.4872 8.63282 11.4872 8.73195V11.0109C11.4872 11.1301 11.6013 11.2162 11.716 11.1835L12.7929 10.8758C12.87 10.8538 12.9231 10.7833 12.9231 10.7032V9.17565C12.9231 9.10767 12.8847 9.04552 12.8239 9.01512L11.8985 8.55246ZM2.10147 8.55246L1.17614 9.01513C1.11533 9.04553 1.07692 9.10768 1.07692 9.17567V10.7032C1.07692 10.7833 1.13005 10.8538 1.2071 10.8758L2.28402 11.1835C2.39868 11.2162 2.51282 11.1301 2.51282 11.0109V8.73195C2.51282 8.63282 2.43246 8.55246 2.33333 8.55246H2.10147Z" fill="black"/>
</g>
</svg>

<svg xmlns="http://www.w3.org/2000/svg" fill="none" viewBox="0 0 14 14"><path fill="#000" fill-rule="evenodd" d="M2.548 7.494A1.26 1.26 0 0 1 3.59 8.732v2.279c0 .835-.8 1.437-1.602 1.208l-1.077-.308A1.256 1.256 0 0 1 0 10.703V9.176c0-.476.269-.911.695-1.124l.756-.378c.011-.164.032-.381.07-.635.082-.57.249-1.337.588-2.113.34-.775.86-1.577 1.66-2.186C4.574 2.125 5.632 1.732 7 1.732s2.425.393 3.232 1.008c.8.609 1.32 1.41 1.659 2.186s.506 1.544.589 2.113c.037.254.058.47.07.635l.755.378c.426.213.695.648.695 1.124v1.527c0 .561-.372 1.054-.911 1.208l-1.077.308a1.256 1.256 0 0 1-1.602-1.208V8.732c0-.62.45-1.136 1.042-1.238a7.27 7.27 0 0 0-.548-2.136c-.289-.66-.71-1.294-1.325-1.762C8.972 3.134 8.146 2.81 7 2.81s-1.972.325-2.58.787c-.613.468-1.035 1.102-1.324 1.762a7.3 7.3 0 0 0-.548 2.136m9.35 1.058h-.231c-.1 0-.18.08-.18.18v2.279c0 .12.114.205.229.173l1.077-.308a.18.18 0 0 0 .13-.173V9.176a.18.18 0 0 0-.1-.16zm-9.797 0-.925.463a.18.18 0 0 0-.1.16v1.528c0 .08.054.15.131.173l1.077.308a.18.18 0 0 0 .229-.173V8.732c0-.1-.08-.18-.18-.18z" clip-rule="evenodd"/></svg>
